Desktop/project_createx/public/images/decor/shapes2.svg

<svg width="595" height="620" viewBox="0 0 595 620" fill="none" xmlns="http://www.w3.org/2000/svg">
<path opacity="0.1" d="M282.89 490.069C273.028 499.925 256.955 499.925 247.093 490.069L56.7695 299.878C46.9076 290.023 46.9076 273.96 56.7695 264.105C66.6315 254.25 82.7052 254.25 92.5672 264.105L282.89 454.297C292.752 464.216 292.752 480.214 282.89 490.069Z" fill="url(#paint0_linear_1705_1110)"/>
<path opacity="0.1" d="M439.081 556.686C421.47 574.285 392.909 574.285 375.363 556.686L36.4053 217.964C18.7946 200.366 18.7946 171.824 36.4053 154.29C54.0159 136.691 82.5772 136.691 100.124 154.29L439.081 493.012C456.692 510.546 456.692 539.088 439.081 556.686Z" fill="url(#paint1_linear_1705_1110)"/>
<g opacity="0.4">
<path opacity="0.36" d="M418.398 553.744C406.679 553.744 394.96 549.264 386.059 540.369L47.1653 201.647C38.5201 193.008 33.7812 181.553 33.7812 169.33C33.7812 157.107 38.5201 145.652 47.1653 137.013C55.8106 128.373 67.2735 123.638 79.5049 123.638C91.7363 123.638 103.199 128.373 111.845 137.013L450.802 475.735C468.605 493.525 468.605 522.515 450.802 540.369C441.836 549.264 430.117 553.744 418.398 553.744ZM79.5049 124.918C67.6577 124.918 56.451 129.525 48.0619 137.908C39.6728 146.292 35.062 157.427 35.062 169.33C35.062 181.169 39.6728 192.368 48.0619 200.751L387.019 539.473C395.408 547.857 406.551 552.464 418.462 552.464C430.373 552.464 441.516 547.857 449.905 539.473C467.26 522.131 467.26 493.973 449.905 476.695L110.884 137.972C102.495 129.525 91.3521 124.918 79.5049 124.918Z" fill="#00F0B5"/>
</g>
<path opacity="0.1" d="M543.274 578.51C525.663 596.108 497.102 596.108 479.556 578.51L140.534 239.787C122.924 222.189 122.924 193.647 140.534 176.113C158.145 158.514 186.706 158.514 204.253 176.113L543.274 514.835C560.885 532.37 560.885 560.911 543.274 578.51Z" fill="url(#paint2_linear_1705_1110)"/>
<path opacity="0.1" d="M570.105 472.215C552.494 489.813 523.933 489.813 506.386 472.215L167.429 133.492C149.818 115.894 149.818 87.3524 167.429 69.818C185.039 52.2195 213.601 52.2195 231.147 69.818L570.105 408.54C587.715 426.075 587.715 454.616 570.105 472.215Z" fill="url(#paint3_linear_1705_1110)"/>
<path opacity="0.1" d="M584 537.106C569.335 551.761 545.577 551.761 530.912 537.106L248.565 254.955C233.9 240.3 233.9 216.558 248.565 201.903C263.23 187.248 286.988 187.248 301.653 201.903L584 484.054C598.665 498.709 598.665 522.451 584 537.106Z" fill="url(#paint4_linear_1705_1110)"/>
<path opacity="0.1" d="M473.279 327.779C463.417 337.635 447.343 337.635 437.481 327.779L247.158 137.588C237.296 127.733 237.296 111.67 247.158 101.815C257.02 91.96 273.094 91.96 282.956 101.815L473.279 292.007C483.141 301.926 483.141 317.924 473.279 327.779Z" fill="url(#paint5_linear_1705_1110)"/>
<g opacity="0.4">
<path opacity="0.36" d="M487.303 322.404C480.643 322.404 473.983 319.908 468.924 314.852L278.665 124.661C268.547 114.55 268.547 98.1034 278.665 87.9923C283.596 83.0647 290.064 80.377 297.044 80.377C304.024 80.377 310.492 83.0647 315.423 87.9923L505.746 278.184C510.677 283.111 513.367 289.575 513.367 296.55C513.367 303.461 510.677 309.989 505.746 314.916C500.623 319.844 493.963 322.404 487.303 322.404ZM296.98 81.6568C290.384 81.6568 284.172 84.2166 279.561 88.8882C269.955 98.4874 269.955 114.166 279.561 123.765L469.885 313.956C479.49 323.556 495.18 323.556 504.786 313.956C509.461 309.285 512.022 303.077 512.022 296.55C512.022 289.959 509.461 283.751 504.786 279.144L314.462 88.9522C309.788 84.2166 303.576 81.6568 296.98 81.6568Z" fill="#00F0B5"/>
</g>
<g opacity="0.4">
<path opacity="0.36" d="M216.291 492.5C209.375 492.5 202.843 489.813 197.912 484.885L7.5886 294.758C-2.52953 284.647 -2.52953 268.2 7.5886 258.089C12.5196 253.161 18.9875 250.474 25.9677 250.474C32.8839 250.474 39.4159 253.161 44.3469 258.089L234.606 448.28C244.724 458.391 244.724 474.838 234.606 484.949C229.739 489.813 223.207 492.5 216.291 492.5ZM25.9677 251.754C19.3717 251.754 13.16 254.313 8.54918 258.985C-1.05664 268.584 -1.05664 284.263 8.54918 293.862L198.872 484.053C203.547 488.725 209.759 491.285 216.291 491.285C222.887 491.285 229.099 488.725 233.71 484.053C243.315 474.454 243.315 458.775 233.71 449.176L43.3863 258.985C38.7755 254.313 32.5637 251.754 25.9677 251.754Z" fill="#00F0B5"/>
</g>
<g opacity="0.4">
<path opacity="0.36" d="M538.277 619.21C526.045 619.21 514.582 614.474 505.937 605.835L166.98 267.113C158.335 258.473 153.596 247.018 153.596 234.796C153.596 222.573 158.335 211.118 166.98 202.478C175.625 193.839 187.088 189.104 199.319 189.104C211.551 189.104 223.014 193.839 231.659 202.478L570.616 541.201C579.261 549.84 584 561.295 584 573.518C584 585.741 579.261 597.196 570.616 605.835L570.168 605.387L570.616 605.835C561.971 614.474 550.444 619.21 538.277 619.21ZM199.319 190.383C187.472 190.383 176.265 194.991 167.876 203.374C159.487 211.758 154.876 222.893 154.876 234.796C154.876 246.634 159.487 257.833 167.876 266.217L506.834 604.939C524.188 622.282 552.365 622.282 569.656 604.939C578.045 596.556 582.656 585.421 582.656 573.518C582.656 561.679 578.045 550.48 569.656 542.097L230.762 203.438C222.373 195.055 211.167 190.383 199.319 190.383Z" fill="#00F0B5"/>
</g>
<g opacity="0.4">
<path opacity="0.36" d="M522.587 430.042C510.868 430.042 499.149 425.563 490.248 416.667L151.29 78.0092C142.645 69.3699 137.906 57.9149 137.906 45.692C137.906 33.4691 142.645 22.0141 151.29 13.3748C159.936 4.73558 171.399 0 183.63 0C195.861 0 207.324 4.73558 215.97 13.3748L554.927 352.097C572.73 369.888 572.73 398.877 554.927 416.732C546.025 425.563 534.306 430.042 522.587 430.042ZM183.63 1.27989C171.783 1.27989 160.576 5.88748 152.187 14.2708C143.798 22.654 139.187 33.789 139.187 45.692C139.187 57.531 143.798 68.73 152.187 77.1132L491.144 415.836C508.499 433.178 536.676 433.178 553.966 415.836L554.414 416.284L553.966 415.836C571.321 398.493 571.321 370.336 553.966 353.057L215.073 14.2708C206.684 5.88748 195.477 1.27989 183.63 1.27989Z" fill="#00F0B5"/>
</g>
<defs>
<linearGradient id="paint0_linear_1705_1110" x1="279.891" y1="226.636" x2="169.496" y2="451.534" gradientUnits="userSpaceOnUse">
<stop stop-color="#F4F5F7" stop-opacity="0"/>
<stop offset="1" stop-color="#F4F5F7"/>
</linearGradient>
<linearGradient id="paint1_linear_1705_1110" x1="433.772" y1="87.5196" x2="237.148" y2="488.084" gradientUnits="userSpaceOnUse">
<stop stop-color="#F4F5F7" stop-opacity="0"/>
<stop offset="1" stop-color="#F4F5F7"/>
</linearGradient>
<linearGradient id="paint2_linear_1705_1110" x1="537.962" y1="109.343" x2="341.356" y2="509.931" gradientUnits="userSpaceOnUse">
<stop stop-color="#F4F5F7" stop-opacity="0"/>
<stop offset="1" stop-color="#F4F5F7"/>
</linearGradient>
<linearGradient id="paint3_linear_1705_1110" x1="564.796" y1="3.0479" x2="368.171" y2="403.613" gradientUnits="userSpaceOnUse">
<stop stop-color="#F4F5F7" stop-opacity="0"/>
<stop offset="1" stop-color="#F4F5F7"/>
</linearGradient>
<linearGradient id="paint4_linear_1705_1110" x1="579.574" y1="146.287" x2="415.787" y2="479.957" gradientUnits="userSpaceOnUse">
<stop stop-color="#F4F5F7" stop-opacity="0"/>
<stop offset="1" stop-color="#F4F5F7"/>
</linearGradient>
<linearGradient id="paint5_linear_1705_1110" x1="470.279" y1="64.3462" x2="359.884" y2="289.243" gradientUnits="userSpaceOnUse">
<stop stop-color="#F4F5F7" stop-opacity="0"/>
<stop offset="1" stop-color="#F4F5F7"/>
</linearGradient>
</defs>
</svg>

<svg xmlns="http://www.w3.org/2000/svg" width="595" height="620" fill="none"><path fill="url(#a)" d="M282.89 490.069c-9.862 9.856-25.935 9.856-35.797 0L56.77 299.878c-9.862-9.855-9.862-25.918 0-35.773s25.935-9.855 35.797 0L282.89 454.297c9.862 9.919 9.862 25.917 0 35.772" opacity=".1"/><path fill="url(#b)" d="M439.081 556.686c-17.611 17.599-46.172 17.599-63.718 0L36.405 217.964c-17.61-17.598-17.61-46.14 0-63.674 17.61-17.599 46.172-17.599 63.719 0l338.957 338.722c17.611 17.534 17.611 46.076 0 63.674" opacity=".1"/><g opacity=".4"><path fill="#00F0B5" d="M418.398 553.744c-11.719 0-23.438-4.48-32.339-13.375L47.165 201.647c-8.645-8.639-13.384-20.094-13.384-32.317s4.74-23.678 13.384-32.317c8.646-8.64 20.109-13.375 32.34-13.375s23.694 4.735 32.34 13.375l338.957 338.722c17.803 17.79 17.803 46.78 0 64.634a45.9 45.9 0 0 1-32.404 13.375M79.505 124.918c-11.847 0-23.054 4.607-31.443 12.99-8.39 8.384-13 19.519-13 31.422 0 11.839 4.61 23.038 13 31.421l338.957 338.722c8.389 8.384 19.532 12.991 31.443 12.991s23.054-4.607 31.443-12.991c17.355-17.342 17.355-45.5 0-62.778L110.884 137.972c-8.389-8.447-19.532-13.054-31.38-13.054" opacity=".36"/></g><path fill="url(#c)" d="M543.274 578.51c-17.611 17.598-46.172 17.598-63.718 0L140.534 239.787c-17.61-17.598-17.61-46.14 0-63.674 17.611-17.599 46.172-17.599 63.719 0l339.021 338.722c17.611 17.535 17.611 46.076 0 63.675" opacity=".1"/><path fill="url(#d)" d="M570.105 472.215c-17.611 17.598-46.172 17.598-63.719 0L167.429 133.492c-17.611-17.598-17.611-46.14 0-63.674 17.61-17.598 46.172-17.598 63.718 0L570.105 408.54c17.61 17.535 17.61 46.076 0 63.675" opacity=".1"/><path fill="url(#e)" d="M584 537.106c-14.665 14.655-38.423 14.655-53.088 0L248.565 254.955c-14.665-14.655-14.665-38.397 0-53.052s38.423-14.655 53.088 0L584 484.054c14.665 14.655 14.665 38.397 0 53.052" opacity=".1"/><path fill="url(#f)" d="M473.279 327.779c-9.862 9.856-25.936 9.856-35.798 0L247.158 137.588c-9.862-9.855-9.862-25.918 0-35.773s25.936-9.855 35.798 0l190.323 190.192c9.862 9.919 9.862 25.917 0 35.772" opacity=".1"/><g opacity=".4"><path fill="#00F0B5" d="M487.303 322.404c-6.66 0-13.32-2.496-18.379-7.552L278.665 124.661c-10.118-10.111-10.118-26.558 0-36.669 4.931-4.927 11.399-7.615 18.379-7.615s13.448 2.688 18.379 7.615l190.323 190.192c4.931 4.927 7.621 11.391 7.621 18.366 0 6.911-2.69 13.439-7.621 18.366-5.123 4.928-11.783 7.488-18.443 7.488M296.98 81.657c-6.596 0-12.808 2.56-17.419 7.231-9.606 9.6-9.606 25.278 0 34.877l190.324 190.191c9.605 9.6 25.295 9.6 34.901 0 4.675-4.671 7.236-10.879 7.236-17.406 0-6.591-2.561-12.799-7.236-17.406L314.462 88.952c-4.674-4.735-10.886-7.295-17.482-7.295" opacity=".36"/></g><g opacity=".4"><path fill="#00F0B5" d="M216.291 492.5c-6.916 0-13.448-2.687-18.379-7.615L7.589 294.758c-10.119-10.111-10.119-26.558 0-36.669 4.93-4.928 11.399-7.615 18.379-7.615 6.916 0 13.448 2.687 18.379 7.615L234.606 448.28c10.118 10.111 10.118 26.558 0 36.669-4.867 4.864-11.399 7.551-18.315 7.551M25.968 251.754c-6.596 0-12.808 2.559-17.419 7.231-9.606 9.599-9.606 25.278 0 34.877l190.323 190.191c4.675 4.672 10.887 7.232 17.419 7.232 6.596 0 12.808-2.56 17.419-7.232 9.605-9.599 9.605-25.278 0-34.877L43.386 258.985c-4.61-4.672-10.822-7.231-17.418-7.231" opacity=".36"/></g><g opacity=".4"><path fill="#00F0B5" d="M538.277 619.21c-12.232 0-23.695-4.736-32.34-13.375L166.98 267.113c-8.645-8.64-13.384-20.095-13.384-32.317s4.739-23.678 13.384-32.318 20.108-13.374 32.339-13.374c12.232 0 23.695 4.735 32.34 13.374l338.957 338.723C579.261 549.84 584 561.295 584 573.518s-4.739 23.678-13.384 32.317l-.448-.448.448.448c-8.645 8.639-20.172 13.375-32.339 13.375M199.319 190.383c-11.847 0-23.054 4.608-31.443 12.991-8.389 8.384-13 19.519-13 31.422 0 11.838 4.611 23.037 13 31.421l338.958 338.722c17.354 17.343 45.531 17.343 62.822 0 8.389-8.383 13-19.518 13-31.421 0-11.839-4.611-23.038-13-31.421L230.762 203.438c-8.389-8.383-19.595-13.055-31.443-13.055" opacity=".36"/></g><g opacity=".4"><path fill="#00F0B5" d="M522.587 430.042c-11.719 0-23.438-4.479-32.339-13.375L151.29 78.009c-8.645-8.64-13.384-20.094-13.384-32.317s4.739-23.678 13.384-32.317C159.936 4.735 171.399 0 183.63 0s23.694 4.736 32.34 13.375l338.957 338.722c17.803 17.791 17.803 46.78 0 64.635-8.902 8.831-20.621 13.31-32.34 13.31M183.63 1.28c-11.847 0-23.054 4.607-31.443 12.99-8.389 8.384-13 19.519-13 31.422 0 11.839 4.611 23.038 13 31.421l338.957 338.723c17.355 17.342 45.532 17.342 62.822 0l.448.448-.448-.448c17.355-17.343 17.355-45.5 0-62.779L215.073 14.271C206.684 5.887 195.477 1.28 183.63 1.28" opacity=".36"/></g><defs><linearGradient id="a" x1="279.891" x2="169.496" y1="226.636" y2="451.534" gradientUnits="userSpaceOnUse"><stop stop-color="#F4F5F7" stop-opacity="0"/><stop offset="1" stop-color="#F4F5F7"/></linearGradient><linearGradient id="b" x1="433.772" x2="237.148" y1="87.52" y2="488.084" gradientUnits="userSpaceOnUse"><stop stop-color="#F4F5F7" stop-opacity="0"/><stop offset="1" stop-color="#F4F5F7"/></linearGradient><linearGradient id="c" x1="537.962" x2="341.356" y1="109.343" y2="509.931" gradientUnits="userSpaceOnUse"><stop stop-color="#F4F5F7" stop-opacity="0"/><stop offset="1" stop-color="#F4F5F7"/></linearGradient><linearGradient id="d" x1="564.796" x2="368.171" y1="3.048" y2="403.613" gradientUnits="userSpaceOnUse"><stop stop-color="#F4F5F7" stop-opacity="0"/><stop offset="1" stop-color="#F4F5F7"/></linearGradient><linearGradient id="e" x1="579.574" x2="415.787" y1="146.287" y2="479.957" gradientUnits="userSpaceOnUse"><stop stop-color="#F4F5F7" stop-opacity="0"/><stop offset="1" stop-color="#F4F5F7"/></linearGradient><linearGradient id="f" x1="470.279" x2="359.884" y1="64.346" y2="289.243" gradientUnits="userSpaceOnUse"><stop stop-color="#F4F5F7" stop-opacity="0"/><stop offset="1" stop-color="#F4F5F7"/></linearGradient></defs></svg>
